frontend/public/svg/emojis/cool-emoji.svg

<svg width="161" height="156" viewBox="0 0 161 156" fill="none" xmlns="http://www.w3.org/2000/svg">
<path d="M160.539 40.9329C161.661 36.1346 160.607 34.3518 155.552 34.297C152.322 34.2631 149.092 34.1831 145.864 34.225C143.829 31.4801 141.597 28.8866 139.187 26.465C137.75 25.2779 136.319 24.0468 134.934 22.8551C131.933 20.2738 128.83 17.6026 125.584 15.3233C100.786 -2.12951 75.0204 -2.22769 49.0065 7.02823C33.7646 12.4454 22.056 21.3836 13.9871 33.6887C11.2014 33.6691 8.4149 33.661 5.63047 33.638C0.581659 33.5967 -0.755026 35.5171 0.733344 40.2537C0.915203 41.0166 1.01978 41.7959 1.04551 42.5798C1.51657 47.8384 2.41127 53.0503 3.72091 58.1649C-2.74991 85.1594 3.48797 109.005 22.3032 129.062C22.8009 129.589 23.3088 130.115 23.8159 130.62C34.0916 140.895 46.8904 147.24 57.0314 151.654C61.3841 153.555 83.7177 155.864 89.7606 154.963C125.672 149.601 149.304 129.346 157.535 95.4602C159.106 88.8225 159.889 82.0225 159.866 75.2014C159.849 69.3797 159.044 63.587 157.473 57.9814C157.686 57.2826 157.889 56.583 158.082 55.8823C159.417 51.0448 159.392 45.8422 160.539 40.9329ZM148.941 55.4042C147.909 58.9782 146.842 62.4756 145.605 65.9108C142.63 74.1875 136.086 78.3339 127.396 78.5587C122.024 78.6975 116.532 78.6534 111.273 77.702C100.348 75.7247 92.9655 67.3274 91.2665 56.2614C90.7248 52.7315 91.6478 50.2349 95.1588 49.2415C102.291 47.2263 109.366 44.6254 116.651 43.634C125.076 42.4869 133.614 42.17 142.135 41.738C144.872 46.0443 147.154 50.6246 148.941 55.4042ZM49.1074 15.2785C71.932 5.793 94.8338 4.1191 117.171 18.3256C121.255 20.9259 132.143 29.7268 133.857 31.0479L133.967 31.1291L134.058 31.2301C134.998 32.2269 135.954 33.3178 136.908 34.4805C123.965 35.0384 111.143 36.5152 98.7809 40.8747C94.8991 42.3207 91.228 44.2793 87.8653 46.6982C84.5249 49.0296 77.4561 49.083 74.0596 46.7015C70.514 44.2164 66.7464 41.801 62.7207 40.2964C51.9832 36.2829 40.6694 34.7607 29.288 34.0984C27.6262 34.0016 25.9632 33.9319 24.2994 33.8757C30.918 25.7355 39.4377 19.3487 49.1074 15.2785ZM19.2784 40.96C22.2213 40.9424 25.1425 40.9599 28.0576 41.0954C39.5691 41.6229 50.9878 43.0517 61.8885 46.9745C71.0876 50.285 71.8284 50.3318 68.511 60.7348C64.8043 72.3587 55.6574 77.3506 43.9868 77.9668C39.3782 78.1277 34.7642 77.9122 30.1906 77.3227C24.4667 76.6842 20.2954 73.5931 17.2821 68.5924C15.1057 64.8994 13.4489 60.9239 12.3586 56.7782C12.3965 56.6428 12.4304 56.5107 12.469 56.378C14.0364 50.9563 16.3268 45.7703 19.2784 40.96ZM9.79831 41.0413C9.68658 41.2675 9.57079 41.4903 9.45973 41.7185C9.42588 41.493 9.39202 41.2682 9.35748 41.0413H9.79831ZM152.532 74.7375C152.459 82.1647 151.454 89.5533 149.539 96.7299C143.865 117.352 130.301 132.382 108.069 142.663C85.4688 153.484 53.0578 142.544 44.4344 136.851C34.9031 130.334 26.5631 122.228 19.7788 112.885C11.9428 101.79 8.58892 87.1212 9.64663 72.2531C9.91749 72.6993 10.1938 73.1449 10.4843 73.5857C14.0488 78.9826 18.7522 82.727 25.0775 84.3346C33.8283 86.6472 42.997 86.8934 51.8593 85.0537C64.8036 82.3228 72.7967 74.3082 76.5373 61.8277C77.0018 59.9422 77.3689 58.0338 77.6369 56.1105H83.5085C83.6676 57.0145 83.8173 57.7742 83.9344 58.5394C86.2259 73.4738 96.0817 83.9704 111.02 85.9369C118.056 86.8632 125.376 86.3559 132.499 85.6998C141.437 84.8757 148.12 79.9548 152.001 71.8758C152.142 71.5813 152.278 71.2827 152.417 70.9861C152.504 72.2327 152.547 73.4834 152.531 74.7375H152.532ZM150.673 41.6087C151.287 41.6696 151.978 41.7367 152.805 41.7983C152.563 42.6197 152.331 43.4323 152.098 44.2442C151.643 43.3594 151.167 42.4809 150.672 41.6087H150.673Z" fill="black"/>
<path d="M113.603 94.9481C111.585 93.371 109.015 94.5047 106.592 98.3021C102.515 104.69 96.8131 108.583 89.3746 109.497C83.9324 110.166 78.3696 110.671 72.924 110.303C65.4192 109.797 58.2712 107.933 53.496 101.094C52.8365 100.149 49.9918 99.5751 49.1623 100.188C48.556 100.758 48.0929 101.463 47.8105 102.246C47.5281 103.029 47.4344 103.867 47.5371 104.693C48.4695 108.694 51.3291 111.496 54.7508 113.669C62.888 118.832 72.0024 119.753 81.5854 119.826C84.4633 119.473 87.612 119.239 90.7073 118.675C100.898 116.826 109.573 112.685 114.075 102.566C115.238 99.9651 116.485 97.201 113.603 94.9481Z" fill="black"/>
</svg>

<svg xmlns="http://www.w3.org/2000/svg" width="161" height="156" fill="none" viewBox="0 0 161 156"><path fill="#000" d="M160.539 40.933c1.122-4.798.068-6.581-4.987-6.636-3.23-.034-6.46-.114-9.688-.072a71 71 0 0 0-6.677-7.76 279 279 0 0 1-4.253-3.61c-3.001-2.581-6.104-5.252-9.35-7.532C100.786-2.13 75.02-2.227 49.007 7.028c-15.242 5.417-26.951 14.356-35.02 26.66-2.786-.019-5.572-.027-8.357-.05-5.048-.041-6.385 1.88-4.897 6.616.182.763.287 1.542.313 2.326A98 98 0 0 0 3.72 58.165c-6.47 26.994-.233 50.84 18.582 70.897a71 71 0 0 0 1.513 1.558c10.276 10.275 23.074 16.62 33.215 21.034 4.353 1.901 26.687 4.21 32.73 3.309 35.911-5.362 59.543-25.617 67.774-59.503a86.7 86.7 0 0 0 2.331-20.259 64.5 64.5 0 0 0-2.393-17.22q.32-1.047.609-2.099c1.335-4.837 1.31-10.04 2.457-14.95M148.94 55.403c-1.032 3.574-2.099 7.072-3.336 10.507-2.975 8.276-9.519 12.423-18.209 12.648-5.372.139-10.864.094-16.123-.857-10.925-1.977-18.307-10.375-20.007-21.44-.541-3.53.382-6.027 3.893-7.02 7.132-2.016 14.207-4.617 21.492-5.608 8.425-1.147 16.963-1.464 25.484-1.896a73.4 73.4 0 0 1 6.806 13.666M49.107 15.28c22.825-9.486 45.727-11.16 68.064 3.047 4.084 2.6 14.972 11.4 16.686 12.722l.11.081.091.101a63 63 0 0 1 2.85 3.25c-12.943.558-25.765 2.035-38.127 6.395a46.5 46.5 0 0 0-10.916 5.823c-3.34 2.332-10.409 2.385-13.805.004-3.546-2.486-7.314-4.901-11.34-6.406-10.737-4.013-22.05-5.535-33.432-6.198a205 205 0 0 0-4.989-.222A63.95 63.95 0 0 1 49.107 15.28M19.278 40.96c2.943-.018 5.865 0 8.78.135 11.511.528 22.93 1.957 33.83 5.88 9.2 3.31 9.94 3.357 6.623 13.76-3.707 11.624-12.854 16.616-24.524 17.232a85 85 0 0 1-13.796-.644c-5.724-.639-9.896-3.73-12.909-8.73a46.6 46.6 0 0 1-4.923-11.815q.054-.202.11-.4a63 63 0 0 1 6.81-15.418m-9.48.081c-.111.227-.227.45-.338.678l-.103-.678zm142.734 33.697a88.7 88.7 0 0 1-2.993 21.992c-5.674 20.622-19.238 35.652-41.47 45.933-22.6 10.821-55.011-.119-63.635-5.812a100.7 100.7 0 0 1-24.655-23.966C11.943 101.79 8.589 87.121 9.647 72.253q.404.67.837 1.333c3.565 5.397 8.268 9.141 14.594 10.749a58.4 58.4 0 0 0 26.781.719c12.945-2.731 20.938-10.746 24.678-23.226a57 57 0 0 0 1.1-5.718h5.871c.16.904.31 1.664.426 2.43 2.292 14.934 12.148 25.43 27.086 27.397 7.036.926 14.356.419 21.479-.237 8.938-.824 15.621-5.745 19.502-13.824.141-.295.277-.593.416-.89.087 1.247.13 2.497.114 3.751zm-1.859-33.13a76 76 0 0 0 2.132.19c-.242.822-.474 1.634-.707 2.446a73 73 0 0 0-1.426-2.635z"/><path fill="#000" d="M113.603 94.948c-2.018-1.577-4.588-.443-7.011 3.354-4.077 6.388-9.779 10.281-17.217 11.195-5.443.669-11.005 1.174-16.451.806-7.505-.506-14.653-2.37-19.428-9.209-.66-.945-3.504-1.519-4.334-.906a5.29 5.29 0 0 0-1.625 4.505c.932 4.001 3.792 6.803 7.214 8.976 8.137 5.163 17.251 6.084 26.834 6.157 2.878-.353 6.027-.587 9.122-1.151 10.191-1.849 18.866-5.99 23.368-16.109 1.163-2.6 2.41-5.365-.472-7.618"/></svg>
